theme/img/logo-multivisi-white.svg

<svg width="308" height="58" viewBox="0 0 308 58" fill="none" xmlns="http://www.w3.org/2000/svg">
<path fill-rule="evenodd" clip-rule="evenodd" d="M14.9769 37.5654C15.4721 36.3561 37.5353 -3.9733 37.5353 17.9716C37.5353 24.8911 35.3904 32.6166 34.1881 39.4237C35.4609 36.4232 59.3867 -4.73462 59.3867 18.1059C59.3867 25.5181 56.6288 32.7733 56.275 40.1403C55.4974 57.2483 90.6668 11.1421 93.4483 7.80545C81.5682 25.3615 61.8618 50.0379 56.2987 50.1722C41.8961 50.4635 57.43 19.5614 51.6786 19.5614C47.412 19.5614 32.6088 43.9921 32.6088 48.8961C32.6088 49.0304 32.6561 49.2542 32.7266 49.5903C32.4438 49.6575 31.9722 49.8141 31.2651 50.0379C30.9823 50.1498 30.5344 50.1945 29.9214 50.1945C28.083 50.1945 27.1635 49.2094 27.1635 47.2164C27.1635 38.9762 31.3361 30.3103 31.3361 21.9353C31.3361 20.435 30.8409 19.6737 29.8509 19.6737C25.2309 19.6737 14.1752 43.0065 14.1752 47.9777C14.1752 48.4481 14.3402 48.9185 14.6467 49.3661C12.0302 50.6426 8.51794 50.7321 8.51794 46.4103C8.51794 39.2671 13.4449 22.4728 9.01314 16.6951C11.6533 15.6205 16.5325 13.4708 16.5325 18.7777C16.5325 24.9358 15.5189 31.4296 14.9769 37.5654Z" fill="white"/>
<path fill-rule="evenodd" clip-rule="evenodd" d="M292.998 49.8063V26.0255H299.482V49.8063H292.998ZM265.445 49.8063V45.602H278.925C279.76 45.602 280.62 45.5618 281.44 45.4325C282.02 45.3407 282.622 45.1969 283.135 44.9589C283.499 44.7909 283.823 44.5712 284.037 44.2812C284.248 43.9962 284.327 43.6756 284.327 43.3481C284.327 43.0837 284.258 42.8325 284.107 42.596C283.936 42.3265 283.677 42.0968 283.388 41.9018C282.93 41.5935 282.334 41.3314 281.8 41.1149C280.922 40.7596 279.993 40.4554 279.076 40.1695L272.853 38.2313C271.786 37.8988 270.724 37.5152 269.743 37.0452C268.925 36.6543 268.142 36.1939 267.481 35.6464C266.895 35.1609 266.409 34.6092 266.08 33.9894C265.76 33.3843 265.605 32.7463 265.605 32.0905C265.605 31.1753 265.873 30.3039 266.472 29.517C267.091 28.7036 267.989 28.0706 269.01 27.5792C270.189 27.0124 271.507 26.643 272.851 26.4069C274.452 26.1255 276.117 26.0255 277.755 26.0255H289.268V30.1979H276.124C275.548 30.1979 274.958 30.2363 274.398 30.345C273.963 30.429 273.539 30.5592 273.165 30.7537C272.888 30.898 272.627 31.0794 272.46 31.3086C272.309 31.5146 272.248 31.7402 272.248 31.9772C272.248 32.2037 272.308 32.4179 272.438 32.6198C272.588 32.8513 272.818 33.0477 273.07 33.2126C273.535 33.5149 274.249 33.7931 274.79 33.9995C275.883 34.4178 277.013 34.7905 278.144 35.1403L283.561 36.8141C284.669 37.1562 285.761 37.5576 286.779 38.0449C287.622 38.4482 288.434 38.9214 289.113 39.4872C290.359 40.5248 291.023 41.7629 291.023 43.1924C291.023 44.1912 290.751 45.153 290.119 46.0249C289.48 46.9081 288.545 47.5991 287.456 48.1357C286.201 48.7536 284.775 49.1473 283.335 49.3971C281.582 49.7018 279.752 49.8063 277.959 49.8063H265.445ZM256.312 49.8063V26.0255H262.795V49.8063H256.312ZM239.479 44.093L248.494 26.326L248.647 26.0255H255.24L254.819 26.8476L244.606 46.8976C244.35 47.4018 244.042 47.8969 243.669 48.354C243.358 48.7354 242.987 49.0998 242.543 49.3907C242.128 49.6634 241.656 49.8653 241.141 49.9977C240.605 50.1356 240.042 50.1941 239.478 50.1941C238.916 50.1941 238.354 50.1361 237.819 49.9991C237.308 49.8685 236.836 49.6675 236.423 49.3962C235.983 49.1071 235.614 48.7436 235.304 48.3659C234.928 47.9074 234.62 47.4073 234.351 46.899L223.718 26.0255H230.339L230.53 26.4055L239.479 44.093ZM216.171 49.8063V26.0255H222.654V49.8063H216.171ZM197.244 30.0043H187.724V26.0255H213.248V30.0043H203.728V49.8063H197.244V30.0043ZM171.632 26.0255H178.116V41.8086C178.116 42.3973 178.226 42.9937 178.532 43.5354C178.806 44.0227 179.219 44.4273 179.749 44.7584C180.355 45.1366 181.062 45.3887 181.805 45.5508C182.753 45.7586 183.768 45.828 184.749 45.828H192.264V49.8063H185.6C183.604 49.8063 181.548 49.6812 179.607 49.2994C178.038 48.9907 176.502 48.5015 175.206 47.7288C174.011 47.0164 173.109 46.1103 172.513 45.0279C171.87 43.861 171.632 42.5836 171.632 41.3186V26.0255ZM147.454 26.0255V40.6778C147.454 42.1653 147.864 43.6907 149.269 44.7603C149.9 45.2407 150.656 45.5736 151.485 45.7924C152.497 46.0587 153.592 46.1509 154.655 46.1509C155.716 46.1509 156.808 46.0582 157.817 45.7924C158.649 45.5727 159.409 45.2389 160.043 44.7589C160.666 44.2876 161.11 43.7172 161.402 43.0782C161.751 42.3151 161.874 41.4857 161.874 40.6778V26.0255H168.358V40.8235C168.358 42.1447 168.082 43.4509 167.409 44.6671C166.761 45.839 165.787 46.8373 164.554 47.6681C163.268 48.5349 161.79 49.1615 160.18 49.5693C158.4 50.0201 156.52 50.1941 154.655 50.1941C152.791 50.1941 150.911 50.0205 149.132 49.5702C147.52 49.1624 146.042 48.5363 144.756 47.6681C143.525 46.8373 142.558 45.8385 141.913 44.6676C141.244 43.4509 140.97 42.1438 140.97 40.8235V26.0255H147.454ZM117.884 43.0686L125.409 28.3688C125.608 27.9797 125.858 27.6048 126.175 27.2668C126.478 26.9448 126.836 26.6599 127.249 26.4256C127.657 26.194 128.108 26.0196 128.59 25.9049C129.087 25.7871 129.603 25.7346 130.121 25.7346C130.703 25.7346 131.286 25.7935 131.838 25.9406C132.362 26.0794 132.837 26.2945 133.25 26.5836C133.666 26.8763 133.998 27.2285 134.25 27.6198C134.521 28.0423 134.701 28.5013 134.82 28.9712L139.58 49.2405L139.714 49.8063H133.424L133.309 49.3113L129.517 32.7596L122.004 47.3941C121.803 47.7864 121.563 48.1704 121.272 48.5271C121.02 48.8363 120.723 49.1327 120.369 49.3734C120.029 49.6031 119.643 49.7771 119.221 49.8936C118.792 50.0123 118.341 50.0648 117.887 50.0648C117.428 50.0648 116.97 50.0173 116.533 49.9045C116.109 49.7945 115.722 49.6259 115.38 49.4008C115.02 49.1642 114.72 48.8697 114.468 48.5605C114.169 48.1942 113.924 47.7973 113.717 47.3945L106.208 32.7673L102.354 49.8063H96.0094L100.902 28.9671C101.019 28.5027 101.199 28.0432 101.471 27.6198C101.723 27.2285 102.055 26.8763 102.471 26.5836C102.883 26.2945 103.359 26.0794 103.883 25.9406C104.435 25.7935 105.019 25.7346 105.601 25.7346C106.119 25.7346 106.635 25.7871 107.131 25.9049C107.613 26.02 108.064 26.194 108.472 26.4256C108.884 26.6594 109.241 26.9444 109.541 27.2673C109.856 27.6066 110.104 27.9825 110.293 28.3666L117.884 43.0686Z" fill="white"/>
</svg>

<svg xmlns="http://www.w3.org/2000/svg" fill="none" width="308" height="58" viewBox="0 0 308 58"><path d="M14.977 37.565c.495-1.209 22.558-41.538 22.558-19.593 0 6.92-2.145 14.645-3.347 21.452 1.273-3 25.199-44.159 25.199-21.318 0 7.412-2.758 14.667-3.112 22.034-.778 17.108 34.392-28.998 37.173-32.335-11.88 17.556-31.586 42.233-37.15 42.367-14.402.292 1.132-30.61-4.62-30.61-4.266 0-19.07 24.43-19.07 29.334 0 .134.048.358.12.694-.284.067-.756.224-1.463.448-.283.112-.73.157-1.344.157-1.838 0-2.758-.986-2.758-2.979 0-8.24 4.173-16.906 4.173-25.28 0-1.501-.495-2.262-1.485-2.262-4.62 0-15.676 23.333-15.676 28.304 0 .47.165.94.472 1.388-2.617 1.277-6.13 1.366-6.13-2.956 0-7.143 4.928-23.937.496-29.715 2.64-1.075 7.52-3.224 7.52 2.083 0 6.158-1.014 12.652-1.556 18.787Zm278.021 12.241v-23.78h6.484v23.78h-6.484Zm-27.553 0v-4.204h13.48c.835 0 1.695-.04 2.515-.17.58-.091 1.182-.235 1.695-.473.364-.168.688-.388.902-.678.211-.285.29-.605.29-.933 0-.264-.07-.515-.22-.752-.171-.27-.43-.5-.72-.694-.457-.31-1.053-.57-1.587-.787a35.56 35.56 0 0 0-2.724-.946l-6.223-1.948c-1.067-.332-2.13-.716-3.11-1.186-.818-.39-1.6-.851-2.262-1.4-.586-.484-1.072-1.036-1.401-1.656a4.017 4.017 0 0 1-.475-1.9c0-.915.268-1.786.867-2.573.62-.813 1.517-1.446 2.538-1.938 1.18-.568 2.497-.937 3.84-1.173 1.6-.282 3.267-.38 4.905-.38h11.513v4.17h-13.144c-.576 0-1.166.038-1.726.147-.435.085-.86.215-1.233.41-.277.145-.538.326-.705.556a1.1 1.1 0 0 0-.212.668c0 .227.06.44.19.643.15.23.38.428.632.593.465.302 1.18.58 1.72.786 1.093.42 2.223.79 3.354 1.14l5.417 1.675c1.108.342 2.2.744 3.218 1.23.843.404 1.655.877 2.334 1.443 1.246 1.039 1.91 2.277 1.91 3.706 0 1-.272 1.96-.904 2.833-.64.883-1.574 1.574-2.663 2.11-1.255.619-2.681 1.012-4.121 1.262-1.753.305-3.583.41-5.376.41h-12.514Zm-9.133 0v-23.78h6.483v23.78h-6.483Zm-16.833-5.713 9.015-17.767.153-.3h6.593l-.421.822-10.22 20.05a8.093 8.093 0 0 1-.94 1.456 5.012 5.012 0 0 1-1.126 1.037 4.648 4.648 0 0 1-1.402.607 6.692 6.692 0 0 1-1.663.196 6.707 6.707 0 0 1-1.659-.195 4.617 4.617 0 0 1-1.395-.603 5.06 5.06 0 0 1-1.12-1.03 8.75 8.75 0 0 1-.952-1.467L223.71 26.026h6.62l.193.38 8.95 17.687Zm-23.308 5.713v-23.78h6.483v23.78h-6.483Zm-18.927-19.802h-9.52v-3.98h25.524v3.98h-9.52v19.802h-6.484V30.004Zm-25.612-3.98h6.484V41.81c0 .588.11 1.185.416 1.726.274.488.687.892 1.217 1.223.6.379 1.31.63 2.05.793.944.208 1.96.277 2.94.277h7.515v3.978h-6.66c-1.996 0-4.052-.125-5.993-.507-1.569-.308-3.105-.797-4.4-1.57-1.196-.713-2.098-1.619-2.694-2.7-.644-1.168-.88-2.445-.88-3.71V26.026Zm-24.178 0v14.654c0 1.487.41 3.013 1.815 4.082.631.48 1.387.814 2.216 1.032 1.012.267 2.107.359 3.17.359 1.061 0 2.153-.093 3.162-.359.832-.22 1.592-.553 2.226-1.033a4.357 4.357 0 0 0 1.36-1.68c.35-.764.471-1.593.471-2.401V26.026h6.484v14.798c0 1.32-.276 2.627-.95 3.843-.647 1.172-1.62 2.17-2.854 3.001-1.286.867-2.764 1.493-4.374 1.901-1.78.451-3.66.625-5.525.625-1.864 0-3.744-.174-5.523-.624-1.612-.408-3.09-1.034-4.376-1.902-1.23-.83-2.198-1.83-2.843-3-.67-1.217-.943-2.524-.943-3.844V26.026h6.484Zm-29.57 17.045 7.525-14.7c.2-.39.45-.77.766-1.11a4.557 4.557 0 0 1 1.074-.84c.408-.235.86-.409 1.341-.524a6.647 6.647 0 0 1 1.531-.17 6.69 6.69 0 0 1 1.717.207c.524.138 1 .354 1.412.643a3.74 3.74 0 0 1 1 1.036c.27.422.45.881.57 1.351l4.76 20.27.134.564h-6.29l-.115-.495-3.792-16.552-7.513 14.634a6.407 6.407 0 0 1-.732 1.133 4.27 4.27 0 0 1-.903.845 3.89 3.89 0 0 1-1.148.521 5.01 5.01 0 0 1-1.334.172 5.46 5.46 0 0 1-1.354-.16 3.84 3.84 0 0 1-1.153-.504 4.072 4.072 0 0 1-.912-.84 6.62 6.62 0 0 1-.75-1.165l-7.51-14.628-3.854 17.04H96.01l4.893-20.84a4.52 4.52 0 0 1 .57-1.347 3.74 3.74 0 0 1 1-1.035c.411-.29.887-.505 1.411-.643a6.698 6.698 0 0 1 1.718-.206c.518 0 1.034.052 1.53.17.482.115.933.29 1.34.52a4.455 4.455 0 0 1 1.822 1.942l7.59 14.702Z" fill="#fff" fill-rule="evenodd" clip-rule="evenodd"/></svg>
